X:1
T: the Lowland Lads Think They Are Fine
R: jig
Z: John Chambers <jc:trillian.mit.edu>
B: RSCDS-15
M: 6/8
L: 1/8
%
K: D
|  "D"D>ED FGF | ABA "A7"f2e | "D"d>AF "G"GAB | "D"A<dF "A7"FED | \
|  "D"D>ED ABA | ded "A7"a2g | "D"f>dA "G"Bcd | "A7"ABA "D"F<Dz |]
[| "D"F2G A2d | f>ed "A7"eAG | "D"F2f fed | "A7"c2d eAG | \
|  "D"F2d "G"dcB | "D"A2g "A7"f2e | "D"f>dA "G"Bcd | "A7"ABA "D"F<Dz |]
